X: 38069
T: Spirit Of The House, The
R: reel
M: 4/4
K: Ddorian
|:"Am" EA, (3A,A,A, EDCD|EGAG cGAG|A,E (3EEE EDCE|
AcGE DEFD|EA, (3A,A,A, EDCD|EGAG cGAG|A,E (3EEE EDCE|AcGE D4:|
|:"D5" A2 AB AGED|"C" CDEG AGcG|"D5" A2 AB AGEG|"C" (3ccc Bc AGED|
"G" GB (3BBB AGED|"C" CDEG cdeg|"Am" agea g2 ed|cAGE "D5" D4:|

